assets/icons/24px/stroke/document-video-24px.svg

<svg width="24" height="24" viewBox="0 0 24 24" fill="none" xmlns="http://www.w3.org/2000/svg">
<path fill-rule="evenodd" clip-rule="evenodd" d="M13.5908 4.06638C13.4579 4.01538 13.2989 4 12.4651 4H9C8.02893 4 7.40122 4.00212 6.93871 4.0643C6.50497 4.12262 6.36902 4.21677 6.2929 4.29289C6.21677 4.36902 6.12263 4.50496 6.06431 4.9387C6.00213 5.40121 6 6.02892 6 7V17C6 17.9711 6.00213 18.5988 6.06431 19.0613C6.12263 19.495 6.21677 19.631 6.2929 19.7071C6.36902 19.7832 6.50497 19.8774 6.93871 19.9357C7.40121 19.9979 8.02893 20 9 20H15C15.9711 20 16.5988 19.9979 17.0613 19.9357C17.495 19.8774 17.631 19.7832 17.7071 19.7071C17.7832 19.631 17.8774 19.495 17.9357 19.0613C17.9979 18.5988 18 17.9711 18 17V9.28145C18 8.31581 17.9798 8.13278 17.9135 7.98388C17.8472 7.83499 17.7246 7.69754 17.0069 7.05156L14.472 4.77012C13.8522 4.21234 13.7237 4.11737 13.5908 4.06638ZM12.5937 1.99988C13.2243 1.99897 13.7836 1.99817 14.3073 2.19914C14.831 2.4001 15.2463 2.77488 15.7144 3.19741C15.746 3.22591 15.7778 3.25463 15.8099 3.28353L18.3448 5.56498C18.3821 5.59852 18.4191 5.63174 18.4559 5.66471C18.9976 6.15061 19.4786 6.58212 19.7405 7.17021C20.0024 7.7583 20.0014 8.40451 20.0002 9.13218C20.0001 9.18156 20 9.23131 20 9.28145L20 17.0658C20.0001 17.9523 20.0001 18.7161 19.9179 19.3278C19.8297 19.9833 19.631 20.6117 19.1213 21.1213C18.6117 21.631 17.9833 21.8297 17.3278 21.9179C16.7161 22.0001 15.9523 22.0001 15.0658 22H8.9342C8.0477 22.0001 7.28388 22.0001 6.67221 21.9179C6.0167 21.8297 5.38835 21.631 4.87868 21.1213C4.36902 20.6117 4.17028 19.9833 4.08215 19.3278C3.99991 18.7161 3.99995 17.9523 4 17.0658L4 7C4 6.97798 4 6.95604 4 6.93417C3.99995 6.04768 3.99991 5.28387 4.08215 4.67221C4.17028 4.01669 4.36902 3.38834 4.87868 2.87868C5.38835 2.36902 6.0167 2.17027 6.67221 2.08214C7.28387 1.9999 8.04769 1.99995 8.93417 2C8.95604 2 8.97799 2 9 2H12.4651C12.5083 2 12.5511 1.99994 12.5937 1.99988Z" fill="white"/>
<path fill-rule="evenodd" clip-rule="evenodd" d="M12 5V3H14V5C14 5.97108 14.0021 6.59879 14.0643 7.0613C14.1226 7.49504 14.2168 7.63098 14.2929 7.70711C14.369 7.78323 14.505 7.87738 14.9387 7.93569C15.4012 7.99788 16.0289 8 17 8H19V10H17C16.978 10 16.956 10 16.9342 10C16.0477 10.0001 15.2839 10.0001 14.6722 9.91786C14.0167 9.82973 13.3883 9.63098 12.8787 9.12132C12.369 8.61166 12.1703 7.98331 12.0821 7.32779C11.9999 6.71613 12 5.95232 12 5.06583C12 5.04396 12 5.02202 12 5Z" fill="white"/>
<path fill-rule="evenodd" clip-rule="evenodd" d="M14.5041 13.9069C14.4049 13.8381 14.2892 13.7609 14.1502 13.6682L11.1387 11.6605C10.983 11.5568 10.857 11.4732 10.7526 11.4063C10.7504 11.5302 10.75 11.6815 10.75 11.8686L10.75 15.382C10.75 15.5392 10.7501 15.6698 10.7522 15.783C10.8544 15.7343 10.9712 15.6759 11.1118 15.6056L14.1234 14.0998C14.2727 14.0252 14.3971 13.9629 14.5041 13.9069ZM10.7872 10.9735C10.7872 10.9736 10.787 10.9745 10.7863 10.9763C10.7869 10.9744 10.7872 10.9735 10.7872 10.9735ZM10.3761 11.1958C10.3743 11.1954 10.3734 11.1951 10.3734 11.195C10.3734 11.195 10.3743 11.1952 10.3761 11.1958ZM15.7845 13.0022C15.9982 13.1955 16.2838 13.5267 16.2534 14.0158C16.2229 14.5049 15.8984 14.7982 15.6624 14.9635C15.4425 15.1175 15.1422 15.2676 14.8366 15.4203C14.8225 15.4273 14.8083 15.4344 14.7942 15.4415L11.7826 16.9473C11.7689 16.9541 11.7551 16.961 11.7414 16.9679C11.4533 17.112 11.1667 17.2554 10.9211 17.3358C10.6533 17.4234 10.243 17.5016 9.84286 17.2543C9.4427 17.007 9.32919 16.6051 9.2878 16.3263C9.24984 16.0707 9.24992 15.7503 9.25001 15.4281C9.25002 15.4128 9.25002 15.3974 9.25002 15.382L9.25002 11.8686C9.25002 11.8522 9.25002 11.8359 9.25001 11.8195C9.24993 11.4511 9.24985 11.0948 9.29109 10.8159C9.33429 10.5237 9.45535 10.0756 9.9102 9.8322C10.365 9.58878 10.805 9.73658 11.0721 9.86272C11.3271 9.98315 11.6234 10.1808 11.93 10.3853C11.9435 10.3943 11.9571 10.4034 11.9707 10.4125L14.9823 12.4202C14.9954 12.4289 15.0086 12.4377 15.0218 12.4465C15.3061 12.6359 15.5854 12.822 15.7845 13.0022Z" fill="white"/>
</svg>

<svg width="24" height="24" fill="none" xmlns="http://www.w3.org/2000/svg"><path fill-rule="evenodd" clip-rule="evenodd" d="M13.59 4.066C13.459 4.016 13.3 4 12.466 4H9c-.971 0-1.599.002-2.061.064-.434.059-.57.153-.646.229-.076.076-.17.212-.229.646C6.002 5.4 6 6.029 6 7v10c0 .971.002 1.599.064 2.061.059.434.153.57.229.646.076.076.212.17.646.229C7.4 19.998 8.029 20 9 20h6c.971 0 1.599-.002 2.061-.064.434-.059.57-.153.646-.229.076-.076.17-.212.229-.646.062-.462.064-1.09.064-2.061V9.281c0-.965-.02-1.148-.087-1.297-.066-.149-.188-.286-.906-.932L14.472 4.77c-.62-.558-.748-.653-.881-.704zM12.595 2c.63-.001 1.19-.002 1.713.2.524.2.94.575 1.407.997l.096.087 2.535 2.281.11.1c.543.486 1.024.917 1.286 1.505.261.588.26 1.235.26 1.962l-.001.15v7.784c0 .886 0 1.65-.082 2.262-.088.655-.287 1.284-.797 1.793-.51.51-1.138.709-1.793.797-.612.082-1.376.082-2.262.082H8.934c-.886 0-1.65 0-2.262-.082-.655-.088-1.284-.287-1.793-.797-.51-.51-.709-1.138-.797-1.793C4 18.716 4 17.952 4 17.066V7v-.066c0-.886 0-1.65.082-2.262.088-.655.287-1.284.797-1.793.51-.51 1.138-.709 1.793-.797C7.284 2 8.048 2 8.934 2H12.594z" fill="#fff"/><path fill-rule="evenodd" clip-rule="evenodd" d="M12 5V3h2v2c0 .971.002 1.599.064 2.061.059.434.153.57.229.646.076.076.212.17.646.229C15.4 7.998 16.029 8 17 8h2v2h-2.066c-.886 0-1.65 0-2.262-.082-.655-.088-1.284-.287-1.793-.797-.51-.51-.709-1.138-.797-1.793C12 6.716 12 5.952 12 5.066V5zm2.504 8.907c-.1-.069-.215-.146-.354-.239l-3.011-2.007a27.896 27.896 0 0 0-.386-.255c-.003.124-.003.275-.003.463v3.513c0 .157 0 .288.002.401.102-.049.22-.107.36-.177l3.011-1.506c.15-.075.274-.137.381-.193zm-3.717-2.934v0zm-.41.223a.03.03 0 0 0 0 0zm5.407 1.806c.214.193.5.525.47 1.014-.031.489-.356.782-.592.947-.22.155-.52.305-.825.457a8.375 8.375 0 0 0-.043.021l-3.011 1.506a7.907 7.907 0 0 0-.042.02c-.288.145-.574.288-.82.369-.268.087-.678.166-1.078-.082-.4-.247-.514-.649-.555-.928-.038-.255-.038-.576-.038-.898V11.87v-.05c0-.368 0-.724.041-1.003.043-.292.164-.74.62-.984.454-.243.894-.095 1.161.03.255.121.551.319.858.523l.04.027 3.012 2.008.04.027c.284.189.563.375.762.555z" fill="#fff"/></svg>
